assets/images/Invite/hands.svg

<svg width="47" height="53" viewBox="0 0 47 53" fill="none" xmlns="http://www.w3.org/2000/svg">
<path d="M29.2907 7.4339C29.87 7.55443 30.4118 7.88001 30.7982 8.38655C31.096 8.77672 31.3948 9.16618 31.6938 9.55564C33.2188 11.5426 34.7957 13.5975 36.1956 15.7448C37.1721 17.2427 37.9478 18.5996 38.5673 19.8928C40.2055 23.3133 40.9136 26.3469 40.7406 29.1661C40.7087 29.6859 40.6509 30.2289 40.5918 30.7604L40.5696 30.9592L40.562 31.0271L40.5468 31.163L40.5316 31.299L40.5167 31.4351L40.502 31.571L40.4875 31.7072L40.4665 31.9136L40.4466 32.1197L40.4341 32.2572C40.2948 33.8398 40.2989 35.3943 41.0462 36.6608L41.0802 36.7173L41.1133 36.7705L41.1456 36.8209L46.1698 44.2444C46.4539 44.6639 46.5535 45.1682 46.4504 45.6642C46.3564 46.1166 46.1052 46.5079 45.7376 46.7794L45.7016 46.8053L36.8272 52.4475C36.5258 52.6391 36.1801 52.7377 35.8309 52.7377C35.6481 52.7377 35.4644 52.7106 35.2856 52.6558C34.8062 52.5089 34.4096 52.1767 34.1806 51.7349L34.1614 51.6968L32.7665 48.4893C32.6478 48.2159 32.5188 47.9415 32.3717 47.6505C32.2507 47.4108 32.2382 47.1448 32.3159 46.9084C32.3936 46.6719 32.5615 46.4652 32.8011 46.3443C33.0407 46.2231 33.3068 46.2106 33.5432 46.2883C33.7797 46.3661 33.9864 46.534 34.1074 46.7736C34.217 46.9905 34.3179 47.1996 34.4127 47.4065L34.4597 47.5098L34.5056 47.6128L34.5503 47.7149L35.8618 50.7352L44.4957 45.2698L39.5296 37.9026C38.3493 36.1029 38.3284 33.9983 38.5053 32.0085L38.5114 31.9415L38.5239 31.8074L38.5378 31.6645C38.5685 31.3554 38.6026 31.0499 38.6362 30.7495C38.7035 30.1481 38.7664 29.5867 38.7995 29.047C38.9524 26.5555 38.2997 23.8363 36.8133 20.733C36.2301 19.5153 35.495 18.2311 34.5664 16.8069C33.2062 14.7204 31.6558 12.7005 30.1564 10.7468C29.8509 10.3487 29.5509 9.95786 29.252 9.56613C29.1633 9.44985 29.0381 9.37307 28.9056 9.34266C28.7793 9.3137 28.6455 9.32671 28.5326 9.39269C28.4221 9.45728 28.3416 9.55415 28.299 9.66551C28.2564 9.77657 28.2517 9.90172 28.2912 10.0229C28.3015 10.0551 28.3708 10.2574 28.4812 10.5801C28.7199 11.2776 29.1237 12.4574 29.5477 13.7116L29.5727 13.7855L29.5968 13.8568L29.6382 13.9793L29.6692 14.0713L29.7003 14.1636L29.7757 14.3873L29.7945 14.4433L29.8134 14.4993L29.8885 14.7228L29.9507 14.9085L30.0126 15.0933L30.0741 15.277L30.1901 15.6252C30.5708 16.7698 30.9018 17.7891 31.0583 18.3307C31.2097 18.8548 31.3278 19.3919 31.4157 19.9362C31.8723 19.6482 32.4113 19.4844 32.9845 19.4844C33.6786 19.4844 34.3283 19.7301 34.8393 20.1454C35.3506 20.5609 35.7229 21.146 35.8625 21.8238C36.3131 24.0112 36.6028 27.8855 35.4082 33.9219C35.4039 33.9434 35.399 33.9648 35.3934 33.9854C35.1704 34.8198 34.9402 36.435 35.3241 37.2028C35.4442 37.4429 35.4556 37.709 35.3769 37.9451C35.2983 38.1811 35.1295 38.3872 34.8893 38.5073C34.7497 38.5771 34.6012 38.6101 34.4551 38.6101C34.2739 38.6101 34.0962 38.5593 33.9428 38.4646C33.7944 38.3729 33.6687 38.2401 33.5848 38.0725C33.2211 37.3451 33.097 36.3363 33.2313 35.0702C33.3144 34.2868 33.4709 33.6524 33.5077 33.5083C34.6872 27.5262 34.2979 23.8663 33.958 22.216C33.911 21.988 33.7851 21.7916 33.6127 21.6519C33.4397 21.5119 33.2198 21.4288 32.9846 21.4288C32.7528 21.4288 32.5373 21.5074 32.3664 21.6426C32.1955 21.7778 32.0694 21.9695 32.0159 22.1953C32.0159 22.1953 31.7751 23.2062 31.498 24.3335L31.4876 24.3759L31.4566 24.5018L31.4358 24.5862L31.3791 24.8156L31.3472 24.9437L31.3154 25.0714L31.2901 25.1731C31.0426 26.1635 30.8049 27.075 30.7137 27.3187C29.8529 29.6181 29.4107 32.1085 29.435 34.5209C29.4609 37.093 30.0285 39.5173 31.0793 41.5309C31.4625 42.2653 31.8982 42.9887 32.2765 43.6092C32.4162 43.8385 32.4498 44.1027 32.3912 44.3445C32.3325 44.5863 32.1816 44.8058 31.9523 44.9455C31.7231 45.0853 31.4589 45.1189 31.2171 45.0603C30.9753 45.0016 30.7558 44.8507 30.616 44.6214C30.2206 43.9728 29.7647 43.2151 29.3553 42.4306C27.8033 39.4564 27.2105 35.8335 27.5954 32.1311C28.0301 25.5682 25.7529 18.108 24.5165 14.0539C24.2874 13.3021 24.0977 12.6797 23.9628 12.1904C23.803 11.6107 23.8718 11.0143 24.1194 10.5046C24.367 9.99503 24.7932 9.57223 25.3478 9.33926C25.6901 9.19546 26.0562 9.13472 26.4182 9.15585C26.591 8.56667 26.9828 8.04605 27.5512 7.71387C28.0903 7.39839 28.7094 7.31295 29.2907 7.4339ZM26.48 11.1435C26.4102 11.1091 26.2682 11.0616 26.1013 11.1319C25.9956 11.1763 25.9146 11.2568 25.8675 11.3536C25.8205 11.4503 25.8072 11.5634 25.8375 11.6734C25.9679 12.146 26.1565 12.7647 26.3758 13.4839C27.2425 16.3261 28.6034 20.7947 29.2417 25.5314C29.8162 23.3709 29.8059 21.001 29.1903 18.8704C28.7133 17.2196 28.1297 15.5458 27.5612 13.9154C27.5453 13.8697 27.3491 13.3051 27.1213 12.6433L27.0967 12.5719L27.0702 12.4948L27.0497 12.435L27.0087 12.3155L26.9873 12.2532L26.9664 12.192C26.8549 11.8663 26.7493 11.5555 26.672 11.3232C26.6147 11.2237 26.5323 11.1694 26.48 11.1435ZM18.9389 7.71372C19.5072 8.0459 19.8991 8.56652 20.0718 9.15587C20.378 9.1379 20.6873 9.17861 20.9826 9.27863L21.0378 9.29808L21.0906 9.31809L21.1413 9.33868C21.6964 9.57167 22.123 9.99474 22.3708 10.5047C22.6184 11.0143 22.6872 11.6106 22.5274 12.1902C22.3907 12.6861 22.1978 13.3187 21.9745 14.051C20.7367 18.1099 18.4579 25.5754 18.8955 32.1398C19.2789 35.8378 18.686 39.4581 17.1349 42.4305C16.6755 43.3109 16.1561 44.1606 15.6537 44.9821C15.0158 46.0253 14.4133 47.0101 13.9199 48.0558L13.8501 48.2056L13.7849 48.3496L13.7235 48.4892L12.3644 51.619C12.1476 52.1183 11.7247 52.4961 11.2044 52.6556C11.0256 52.7104 10.8419 52.7375 10.6591 52.7375C10.3585 52.7375 10.0604 52.6644 9.79099 52.5218L9.74635 52.4974L0.862384 46.8546C0.434858 46.5828 0.142623 46.1601 0.0396297 45.6641C-0.0542 45.2128 0.0199128 44.7547 0.247882 44.3598L0.271192 44.3205L5.34473 36.8202C6.2303 35.4644 6.20167 33.7546 6.03495 32.0295L6.02187 31.8967C6.01298 31.8082 6.00379 31.7197 5.99438 31.6312L5.97292 31.4322L5.96566 31.3659L5.95836 31.2996L5.95102 31.2333L5.93606 31.099L5.92111 30.9654C5.85383 30.3643 5.78522 29.7504 5.74938 29.1659C5.57634 26.3468 6.2845 23.3131 7.9228 19.8927C8.41789 18.8587 9.00359 17.8003 9.71315 16.6574C9.85467 16.4293 10.0753 16.2802 10.3177 16.2235C10.56 16.1668 10.824 16.2025 11.0521 16.3441C11.2801 16.4857 11.4292 16.7064 11.4859 16.9487C11.5426 17.1909 11.5068 17.4549 11.3653 17.683C10.694 18.7644 10.1414 19.7619 9.67659 20.7327C8.19001 23.8361 7.53737 26.5552 7.69029 29.0467C7.72316 29.5842 7.78575 30.1433 7.85194 30.7349C7.87103 30.9055 7.89011 31.0763 7.90861 31.2479L7.93586 31.5061L7.9502 31.6475L7.96346 31.783C8.15654 33.7958 8.18347 35.9352 7.04779 37.7654L7.00907 37.827L6.96659 37.8927L1.98911 45.2475L10.6052 50.742L11.9395 47.7146C12.5157 46.3873 13.2648 45.1609 13.9898 43.9751C14.4774 43.1779 14.9789 42.358 15.4106 41.5307C16.4614 39.5171 17.029 37.0928 17.0549 34.5207C17.0791 32.1083 16.6368 29.6178 15.7762 27.3185C15.3748 26.2462 15.115 25.1453 14.875 24.0368L14.8438 23.8921L14.8129 23.748L14.7462 23.4358C14.6576 23.0206 14.5687 22.6049 14.4729 22.1909C14.42 21.9671 14.294 21.7764 14.1232 21.6417C13.9524 21.5071 13.737 21.4286 13.5053 21.4286C13.2701 21.4286 13.0502 21.5117 12.8772 21.6517C12.7047 21.7914 12.5788 21.9879 12.5319 22.2159C12.393 22.8901 12.3086 23.5753 12.2557 24.2613C12.1728 25.3346 12.1698 26.4136 12.2191 27.4886C12.2878 28.9817 12.459 30.4695 12.6999 31.9444C12.7466 32.2306 12.7961 32.5162 12.8481 32.8015L12.8802 32.9739L12.9132 33.1457L12.947 33.3177L13.0087 33.628C13.1759 34.4697 13.3319 35.3071 13.31 36.1808C13.2939 36.8252 13.196 37.4904 12.9052 38.0722C12.8214 38.2398 12.6957 38.3726 12.5472 38.4643C12.3939 38.559 12.2161 38.6099 12.0349 38.6099C11.8887 38.6099 11.7402 38.577 11.6006 38.5071C11.3605 38.387 11.1917 38.181 11.1131 37.9449C11.0344 37.7089 11.0458 37.4428 11.1658 37.2026C11.4295 36.6753 11.3887 36.0048 11.3398 35.4362C11.2728 34.6565 11.1149 33.8775 10.9575 33.0994C10.8455 32.546 10.7349 31.999 10.6548 31.4528C10.5415 30.6802 10.4478 29.9047 10.3775 29.1271C10.2627 27.855 10.2098 26.5759 10.2482 25.299C10.2831 24.1393 10.3984 22.9346 10.6273 21.8236C10.767 21.1457 11.1393 20.5607 11.6505 20.1452C12.1616 19.7299 12.8113 19.4842 13.5054 19.4842C14.0788 19.4842 14.6178 19.6481 15.0743 19.9356C15.3289 18.3634 15.8313 16.8246 16.3688 15.3058L16.4209 15.1589L16.4716 15.0166L16.5679 14.7473C16.6028 14.65 16.6377 14.5529 16.6726 14.4557C16.8144 14.0607 16.9556 13.6674 17.0925 13.2749C17.4692 12.1957 17.8464 11.1136 18.1981 10.024C18.2377 9.90245 18.2332 9.77684 18.1907 9.66547C18.1482 9.55389 18.0677 9.45696 17.9571 9.3923C17.8444 9.32635 17.7106 9.31337 17.5843 9.34234C17.4517 9.37275 17.3264 9.44952 17.2377 9.56581C16.9392 9.95732 16.6394 10.3479 16.3396 10.7385C15.3425 12.0375 14.3116 13.3806 13.3469 14.7294C13.1907 14.9478 12.9608 15.0821 12.7154 15.1229C12.4699 15.1636 12.2089 15.1107 11.9905 14.9545C11.7721 14.7984 11.6377 14.5684 11.597 14.323C11.5562 14.0775 11.6091 13.8165 11.7653 13.598C12.7478 12.2246 13.7895 10.8672 14.7971 9.55451C15.1033 9.15567 15.3982 8.77143 15.6919 8.38648C16.0783 7.88001 16.6199 7.55447 17.1993 7.43395C17.7806 7.31301 18.3997 7.39838 18.9389 7.71372ZM20.3891 11.1321C20.2221 11.062 20.08 11.1092 20.0102 11.1438C19.9579 11.1696 19.8756 11.2238 19.8183 11.3231C19.762 11.4922 19.6932 11.6958 19.6198 11.9115L19.5993 11.9716L19.5753 12.042L19.5572 12.0951L19.5389 12.1485L19.5145 12.2199L19.4962 12.2735L19.4778 12.3271L19.4412 12.434L19.4052 12.5387L19.3936 12.5725C19.1966 13.1458 19.0224 13.6474 19.0147 13.6691C18.9991 13.7137 18.6248 14.7872 18.1972 16.0628L18.1676 16.1513L18.1453 16.218L18.0783 16.4191L18.0328 16.5561L17.9422 16.8306L17.9157 16.9112L17.8892 16.9917C17.6694 17.6624 17.4621 18.3141 17.3164 18.8136L17.2999 18.8706L17.2753 18.9567L17.2495 19.0502C16.6909 21.1087 16.6901 23.3767 17.2287 25.457L17.2483 25.5321L17.2617 25.4338C17.9054 20.7333 19.2536 16.3066 20.1144 13.484C20.3333 12.7664 20.5221 12.1467 20.6527 11.6734C20.683 11.5635 20.6697 11.4504 20.6226 11.3537C20.5755 11.2569 20.4946 11.1764 20.3891 11.1321ZM9.42049 12.1709C9.68902 12.1709 9.93208 12.2797 10.108 12.4557C10.2839 12.6316 10.3928 12.8747 10.3928 13.1432C10.3928 13.406 10.2885 13.6445 10.1191 13.8195C9.95571 13.9882 9.73168 14.0979 9.48213 14.1135L6.9778 14.1155C6.70927 14.1155 6.46621 14.0067 6.29027 13.8307C6.11434 13.6548 6.00553 13.4117 6.00553 13.1432C6.00553 12.8804 6.10978 12.6419 6.27918 12.4669C6.44258 12.2982 6.66661 12.1885 6.91616 12.1729L9.42049 12.1709ZM39.5124 12.1708C39.7809 12.1708 40.024 12.2796 40.1999 12.4556C40.3758 12.6315 40.4846 12.8746 40.4846 13.1431C40.4846 13.4059 40.3804 13.6444 40.211 13.8194C40.0476 13.9881 39.8236 14.0978 39.574 14.1134L37.0697 14.1154C36.8012 14.1154 36.5581 14.0066 36.3822 13.8306C36.2062 13.6547 36.0974 13.4116 36.0974 13.1431C36.0974 12.8803 36.2017 12.6418 36.3711 12.4668C36.5345 12.2981 36.7585 12.1884 37.008 12.1728L39.5124 12.1708ZM10.525 3.56508C10.7584 3.56089 10.9931 3.64033 11.1803 3.80324L12.9573 5.5769C13.1472 5.7668 13.2421 6.01561 13.2421 6.26442C13.2421 6.51323 13.1472 6.76205 12.9573 6.95203C12.7674 7.14173 12.5185 7.2367 12.2697 7.2367C12.0444 7.2367 11.8189 7.15869 11.6373 7.003L9.85491 5.22469C9.66508 5.03479 9.57017 4.78598 9.57017 4.53717C9.57017 4.28836 9.66507 4.03954 9.85499 3.84957C10.0404 3.66426 10.282 3.56944 10.525 3.56508ZM35.9477 3.56492C36.1965 3.56492 36.4453 3.6598 36.6353 3.84964C36.8206 4.03508 36.9155 4.2767 36.9199 4.51964C36.924 4.75312 36.8446 4.98778 36.6816 5.17501L34.9079 6.95203C34.7181 7.14173 34.4691 7.2367 34.2204 7.2367C33.9716 7.2367 33.7228 7.14173 33.5328 6.95195C33.3475 6.76651 33.2526 6.52489 33.2483 6.28195C33.2441 6.04848 33.3235 5.81381 33.4865 5.62658L35.2602 3.84957C35.4501 3.6598 35.6989 3.56492 35.9477 3.56492ZM23.2451 0C23.5079 0 23.7464 0.104254 23.9213 0.273652C24.0901 0.437048 24.1998 0.661078 24.2154 0.910632L24.2174 3.41496C24.2174 3.68349 24.1085 3.92655 23.9326 4.10249C23.7567 4.27842 23.5136 4.38723 23.2451 4.38723C22.9822 4.38723 22.7438 4.28298 22.5688 4.11358C22.4001 3.95019 22.2904 3.72616 22.2747 3.4766L22.2728 0.972272C22.2728 0.703742 22.3816 0.460679 22.5576 0.284746C22.7335 0.108812 22.9766 0 23.2451 0Z" fill="#2F70B6"/>
</svg>

<svg xmlns="http://www.w3.org/2000/svg" width="47" height="53" fill="none" viewBox="0 0 47 53"><path fill="#2F70B6" d="M29.29 7.434c.58.12 1.122.446 1.508.953l.896 1.169c1.525 1.987 3.102 4.042 4.502 6.189.976 1.498 1.752 2.855 2.371 4.148 1.639 3.42 2.347 6.454 2.174 9.273a32.88 32.88 0 0 1-.15 1.594l-.021.2-.008.067-.015.136-.015.136-.015.136-.015.136-.015.136-.02.207-.02.206-.013.137c-.14 1.583-.135 3.137.612 4.404l.034.056.033.053.033.05 5.024 7.424c.284.42.383.924.28 1.42a1.842 1.842 0 0 1-.712 1.115l-.036.026-8.875 5.642a1.856 1.856 0 0 1-2.646-.712l-.02-.038-1.395-3.208a15.735 15.735 0 0 0-.394-.838.97.97 0 0 1 .43-1.307.969.969 0 0 1 1.305.43c.11.216.21.426.306.633l.047.103.046.103.044.102 1.312 3.02 8.634-5.465-4.966-7.367c-1.18-1.8-1.202-3.905-1.025-5.895l.006-.067.013-.134.014-.142c.03-.31.065-.615.098-.915.067-.602.13-1.163.163-1.703.153-2.492-.5-5.21-1.986-8.314-.583-1.218-1.318-2.502-2.247-3.926-1.36-2.087-2.91-4.106-4.41-6.06l-.904-1.18a.608.608 0 0 0-.346-.224.51.51 0 0 0-.373.05.533.533 0 0 0-.241.63l.19.557c.238.698.642 1.877 1.066 3.132l.025.074.024.07.041.123.031.092.031.093.076.223.018.056.02.056.075.224.062.185.062.185.061.184.116.348a89.43 89.43 0 0 1 .868 2.706 13.6 13.6 0 0 1 .358 1.605 2.94 2.94 0 0 1 3.424.21c.51.415.883 1 1.022 1.678.451 2.187.74 6.061-.454 12.098a.964.964 0 0 1-.015.063c-.223.835-.453 2.45-.069 3.218a.97.97 0 0 1-.435 1.304.969.969 0 0 1-1.304-.434c-.364-.728-.488-1.737-.354-3.003a11.6 11.6 0 0 1 .277-1.562c1.18-5.982.79-9.642.45-11.292a.998.998 0 0 0-1.592-.573.994.994 0 0 0-.35.552s-.24 1.011-.518 2.139l-.01.042-.031.126-.021.084-.057.23-.032.128-.032.127-.025.102c-.247.99-.485 1.902-.576 2.146a20.18 20.18 0 0 0-1.279 7.202c.026 2.572.594 4.996 1.644 7.01.383.734.82 1.458 1.197 2.078a.97.97 0 0 1-.324 1.337.97.97 0 0 1-1.336-.325 38.228 38.228 0 0 1-1.26-2.19c-1.553-2.975-2.146-6.597-1.76-10.3.434-6.563-1.843-14.023-3.08-18.077-.229-.752-.418-1.374-.553-1.864a2.395 2.395 0 0 1 .156-1.685 2.397 2.397 0 0 1 2.3-1.35 2.473 2.473 0 0 1 2.872-1.721zm-2.81 3.71a.456.456 0 0 0-.643.53c.13.472.32 1.09.539 1.81.866 2.842 2.227 7.31 2.866 12.047.574-2.16.564-4.53-.052-6.66-.477-1.651-1.06-3.325-1.629-4.956l-.44-1.272-.024-.071-.027-.077-.02-.06-.041-.12-.022-.062-.02-.061c-.112-.326-.218-.636-.295-.869a.457.457 0 0 0-.192-.18zm-7.541-3.43c.568.332.96.853 1.133 1.442a2.4 2.4 0 0 1 .91.123l.056.02.053.02.05.02c.555.233.982.656 1.23 1.166.247.51.316 1.106.156 1.685-.136.496-.33 1.129-.553 1.861-1.237 4.059-3.516 11.524-3.079 18.089.384 3.698-.209 7.318-1.76 10.29-.46.88-.979 1.73-1.481 2.552-.638 1.043-1.24 2.028-1.734 3.074l-.07.15-.065.144-.062.14-1.359 3.129a1.856 1.856 0 0 1-2.573.903l-.045-.025-8.884-5.642a1.844 1.844 0 0 1-.822-1.19c-.094-.452-.02-.91.208-1.305l.023-.04 5.074-7.5c.885-1.356.857-3.065.69-4.79l-.013-.133a45.915 45.915 0 0 0-.028-.266l-.021-.199-.007-.066-.008-.066-.007-.067-.015-.134-.015-.134a36.652 36.652 0 0 1-.172-1.8c-.173-2.818.536-5.852 2.174-9.272a33.748 33.748 0 0 1 1.79-3.236.969.969 0 0 1 1.34-.313.97.97 0 0 1 .312 1.339 31.846 31.846 0 0 0-1.688 3.05c-1.487 3.103-2.14 5.822-1.987 8.314.033.537.096 1.096.162 1.688l.057.513.027.258.014.142.013.135c.194 2.013.22 4.152-.915 5.982l-.039.062-.042.066-4.978 7.355 8.616 5.494 1.335-3.027c.576-1.328 1.325-2.554 2.05-3.74.487-.797.989-1.617 1.42-2.444 1.051-2.014 1.619-4.438 1.645-7.01a20.185 20.185 0 0 0-1.279-7.203c-.401-1.072-.661-2.173-.901-3.281l-.031-.145-.031-.144-.067-.312c-.088-.415-.177-.831-.273-1.245a.987.987 0 0 0-.968-.762.998.998 0 0 0-.973.787c-.139.674-.223 1.36-.276 2.045a26.288 26.288 0 0 0-.037 3.228c.069 1.493.24 2.98.48 4.455.048.287.097.572.15.857l.031.173.033.172.034.172.062.31c.167.842.323 1.68.301 2.553-.016.644-.114 1.31-.405 1.891a.968.968 0 0 1-.87.538.968.968 0 0 1-.922-.665.97.97 0 0 1 .053-.742c.264-.528.223-1.198.174-1.767-.067-.78-.225-1.559-.383-2.337-.112-.553-.222-1.1-.302-1.646a42.25 42.25 0 0 1-.277-2.326 31.935 31.935 0 0 1-.13-3.828c.035-1.16.15-2.364.38-3.475a2.923 2.923 0 0 1 1.022-1.679 2.94 2.94 0 0 1 3.424-.21c.255-1.572.757-3.11 1.295-4.63l.052-.146.05-.142.097-.27.105-.291c.141-.395.283-.789.42-1.181.376-1.08.753-2.161 1.105-3.251a.536.536 0 0 0-.24-.632.51.51 0 0 0-.374-.05.609.609 0 0 0-.346.224l-.898 1.172c-.998 1.3-2.028 2.643-2.993 3.991a.97.97 0 0 1-1.356.226.969.969 0 0 1-.226-1.357c.983-1.373 2.024-2.73 3.032-4.043l.895-1.169a2.548 2.548 0 0 1 1.507-.952c.582-.121 1.2-.036 1.74.28zm1.45 3.418a.451.451 0 0 0-.57.191l-.2.588-.02.06-.024.071-.018.053-.018.053-.024.072-.019.053-.018.054-.037.107-.036.105-.011.034c-.197.573-.372 1.074-.38 1.096-.015.045-.39 1.118-.817 2.394l-.03.088-.022.067-.067.201-.045.137-.09.275-.027.08-.027.08c-.22.671-.427 1.323-.573 1.823l-.016.057-.025.086-.025.093c-.56 2.059-.56 4.327-.021 6.407l.02.075.013-.098c.643-4.7 1.992-9.127 2.852-11.95.22-.718.408-1.337.539-1.81a.454.454 0 0 0-.264-.542zM9.42 12.171a.969.969 0 0 1 .973.972.97.97 0 0 1-.91.97l-2.505.003a.969.969 0 0 1-.972-.973.97.97 0 0 1 .91-.97l2.504-.002zm30.092 0a.969.969 0 0 1 .973.972.97.97 0 0 1-.911.97l-2.504.002a.969.969 0 0 1-.973-.972.97.97 0 0 1 .911-.97l2.504-.002zM10.525 3.565a.97.97 0 0 1 .655.238l1.777 1.774a.97.97 0 0 1 0 1.375.97.97 0 0 1-1.32.051L9.855 5.225a.97.97 0 0 1 0-1.375.97.97 0 0 1 .67-.285zm25.423 0a.97.97 0 0 1 .972.955.97.97 0 0 1-.238.655l-1.774 1.777a.97.97 0 0 1-1.375 0 .97.97 0 0 1-.047-1.325L35.26 3.85a.97.97 0 0 1 .688-.285zM23.245 0a.969.969 0 0 1 .97.91l.002 2.505a.97.97 0 0 1-.972.972.97.97 0 0 1-.97-.91L22.273.972A.969.969 0 0 1 23.245 0z"/></svg>
